app/javascript/src/assets/gift-badge.svg

<svg xmlns="http://www.w3.org/2000/svg" viewBox="0 0 512 512"><path d="M461.913 99.724h-19.897a65.839 65.839 0 008.766-32.875c0-26.592-15.102-49.804-39.411-60.581C387.06-4.51 359.719-.11 340.017 17.747l-42.003 38.065c-8.939-13.75-24.427-22.871-42.015-22.871-17.615 0-33.124 9.148-42.056 22.935l-42.074-38.13C152.166-.109 124.823-4.508 100.516 6.27c-24.31 10.775-39.411 33.989-39.411 60.58a65.842 65.842 0 008.766 32.875H50.087C22.469 99.724 0 122.193 0 149.811v66.783c0 9.22 7.475 16.696 16.696 16.696h16.696v228.174c0 27.618 22.469 50.087 50.087 50.087h345.043c27.618 0 50.087-22.469 50.087-50.087V233.29h16.696c9.22 0 16.696-7.475 16.696-16.696v-66.783c-.001-27.618-22.47-50.087-50.088-50.087zm-256 378.435H83.478c-9.206 0-16.696-7.49-16.696-16.696V233.29h139.13v244.869zm0-278.261H33.391v-50.087c0-9.206 7.49-16.696 16.696-16.696h155.826v66.783zM127.371 99.723v.001c-18.127 0-32.875-14.748-32.875-32.875 0-13.392 7.309-24.627 19.552-30.054 4.472-1.982 9.075-2.956 13.601-2.956 7.866 0 15.499 2.944 21.798 8.651l63.155 57.234h-85.231zM256 66.333c7.879 0 14.485 5.493 16.23 12.847l-16.286 14.759-16.194-14.677c1.713-7.395 8.341-12.929 16.25-12.929zm16.696 411.826h-33.391V233.29h33.391v244.869zm0-278.261h-33.391v-66.783h33.391v66.783zM362.44 42.491c9.924-8.992 23.156-11.12 35.399-5.694 12.242 5.426 19.552 16.662 19.552 30.053 0 18.127-14.748 32.875-32.875 32.875h-85.231l63.155-57.234zm82.777 418.973c0 9.206-7.49 16.696-16.696 16.696H306.087V233.29h139.13v228.174zm33.392-261.566H306.087v-66.783h155.826c9.206 0 16.696 7.49 16.696 16.696v50.087z"/></svg>

<?xml version="1.0" encoding="iso-8859-1"?>
<!-- Generator: Adobe Illustrator 19.0.0, SVG Export Plug-In . SVG Version: 6.00 Build 0)  -->
<svg version="1.1" id="Layer_1" xmlns="http://www.w3.org/2000/svg" xmlns:xlink="http://www.w3.org/1999/xlink" x="0px" y="0px"
	 viewBox="0 0 512 512" style="enable-background:new 0 0 512 512;" xml:space="preserve">
<g>
	<g>
		<path d="M461.913,99.724h-19.897c5.565-9.696,8.766-20.915,8.766-32.875c0-26.592-15.102-49.804-39.411-60.581
			c-24.311-10.778-51.652-6.378-71.354,11.479l-42.003,38.065c-8.939-13.75-24.427-22.871-42.015-22.871
			c-17.615,0-33.124,9.148-42.056,22.935l-42.074-38.13C152.166-0.109,124.823-4.508,100.516,6.27
			c-24.31,10.775-39.411,33.989-39.411,60.58c0,11.96,3.201,23.178,8.766,32.875H50.087C22.469,99.724,0,122.193,0,149.811v66.783
			c0,9.22,7.475,16.696,16.696,16.696h16.696v228.174c0,27.618,22.469,50.087,50.087,50.087c16.253,0,332.503,0,345.043,0
			c27.618,0,50.087-22.469,50.087-50.087V233.29h16.696c9.22,0,16.696-7.475,16.696-16.696v-66.783
			C512,122.193,489.531,99.724,461.913,99.724z M205.913,478.159H83.478c-9.206,0-16.696-7.49-16.696-16.696V233.29h139.13V478.159z
			 M205.913,199.898c-7.13,0-165.34,0-172.522,0v-50.087c0-9.206,7.49-16.696,16.696-16.696c5.941,0,148.658,0,155.826,0V199.898z
			 M127.371,99.723v0.001c-18.127,0-32.875-14.748-32.875-32.875c0-13.392,7.309-24.627,19.552-30.054
			c4.472-1.982,9.075-2.956,13.601-2.956c7.866,0,15.499,2.944,21.798,8.651l63.155,57.234H127.371z M256,66.333
			c7.879,0,14.485,5.493,16.23,12.847l-16.286,14.759L239.75,79.262C241.463,71.867,248.091,66.333,256,66.333z M272.696,478.159
			h-33.391V233.29h33.391V478.159z M272.696,199.898h-33.391v-66.783c11.935,0,21.339,0,33.391,0V199.898z M362.44,42.491
			c9.924-8.992,23.156-11.12,35.399-5.694c12.242,5.426,19.552,16.662,19.552,30.053c0,18.127-14.748,32.875-32.875,32.875h-85.231
			L362.44,42.491z M445.217,461.464c0,9.206-7.49,16.696-16.696,16.696H306.087V233.29h139.13V461.464z M478.609,199.898
			c-7.184,0-165.396,0-172.522,0v-66.783c7.026,0,149.731,0,155.826,0c9.206,0,16.696,7.49,16.696,16.696V199.898z"/>
	</g>
</g>
<g>
</g>
<g>
</g>
<g>
</g>
<g>
</g>
<g>
</g>
<g>
</g>
<g>
</g>
<g>
</g>
<g>
</g>
<g>
</g>
<g>
</g>
<g>
</g>
<g>
</g>
<g>
</g>
<g>
</g>
</svg>
